Origami/64x64/apps/uget.svg

<svg width="64" height="64" version="1" xmlns="http://www.w3.org/2000/svg">
 <rect x="6" y="7" width="52" height="52" rx="2.8" ry="2.8" style="opacity:.2"/>
 <rect x="6" y="6" width="52" height="52" rx="2.8" ry="2.8" style="fill:#72a637"/>
 <path d="m52 29h-10v6h6l-11 13-10-13h5v-14h10v4h10v-4s0-8-7.5-8h-15s-7.5 0-7.5 8.5v15.5h-4v-14h-6v15c0 5 5 5 5 5h5v2.5c0 7.5 7.5 7.5 7.5 7.5h15c7.5 0 7.5-7.5 7.5-7.5" style="opacity:.2"/>
 <path d="m52 28h-10v6h6l-11 13-10-13h5v-14h10v4h10v-4s0-8-7.5-8h-15s-7.5 0-7.5 8.5v15.5h-4v-14h-6v15c0 5 5 5 5 5h5v2.5c0 7.5 7.5 7.5 7.5 7.5h15c7.5 0 7.5-7.5 7.5-7.5" style="fill:#ffffff"/>
 <path d="M 8.8008,6 C 7.2496,6 6,7.2496 6,8.8008 V 9.8008 C 6,8.2496 7.2496,7 8.8008,7 H 55.199 C 56.75,7 58,8.2496 58,9.8008 V 8.8008 C 58,7.2496 56.75,6 55.199,6 Z" style="fill:#ffffff;opacity:.2"/>
</svg>

<svg xmlns="http://www.w3.org/2000/svg" width="64" height="64" version="1">
 <rect style="opacity:0.2" width="52" height="52" x="6" y="7" rx="2.8" ry="2.8"/>
 <rect style="fill:#72a637" width="52" height="52" x="6" y="6" rx="2.8" ry="2.8"/>
 <path style="opacity:0.2" d="M 52,29 H 42 v 6 h 6 L 37,48 27,35 h 5 V 21 h 10 v 4 h 10 v -4 c 0,0 0,-8 -7.5,-8 h -15 c 0,0 -7.5,0 -7.5,8.5 V 23 37 H 18 V 23 h -6 v 15 c 0,5 5,5 5,5 h 5 v 2.5 c 0,7.5 7.5,7.5 7.5,7.5 h 15 C 52,53 52,45.5 52,45.5"/>
 <path style="fill:#ffffff" d="M 52,28 H 42 V 34 H 48 L 37,47 27,34 H 32 V 20 H 42 V 24 H 52 V 20 C 52,20 52,12 44.5,12 H 29.5 C 29.5,12 22,12 22,20.5 V 22 36 H 18 V 22 H 12 V 37 C 12,42 17,42 17,42 H 22 V 44.5 C 22,52 29.5,52 29.5,52 H 44.5 C 52,52 52,44.5 52,44.5"/>
 <path style="opacity:0.2;fill:#ffffff" d="M 8.8008,6 C 7.2496,6 6,7.2496 6,8.8008 V 9.8008 C 6,8.2496 7.2496,7 8.8008,7 H 55.199 C 56.75,7 58,8.2496 58,9.8008 V 8.8008 C 58,7.2496 56.75,6 55.199,6 Z"/>
</svg>
